src/actions/16/object-ungroup-pop-selection.svg

<svg version="1.1" viewBox="0 0 16 16" xmlns="http://www.w3.org/2000/svg">
 <defs>
  <style id="current-color-scheme" type="text/css">.ColorScheme-Text {
        color:#363636;
      }</style>
 </defs>
 <path d="m9 4v4h3v-4z" fill="#a0b6cb"/>
 <path class="ColorScheme-Text" d="m2 2v3h1v-2h2v-1h-2zm9 0v1h2v2h1v-3zm-5 2c-1.105 0-2 0.895-2 2s0.895 2 2 2 2-0.895 2-2-0.895-2-2-2zm-1 5v3h2v-3zm5.5 0-1.5 3h3zm-8.5 2v3h3v-1h-2v-2zm11 0v2h-2v1h3v-3z" fill="currentColor"/>
</svg>

<svg xmlns="http://www.w3.org/2000/svg" viewBox="0 0 16 16">
    <path fill="#a0b6cb" d="M9 4v4h3V4z"/>
    <path fill="currentColor" d="M2 2v3h1V3h2V2H3zm9 0v1h2v2h1V2zM6 4a2 2 0 1 0-.001 3.999A2 2 0 0 0 6 4zM5 9v3h2V9zm5.5 0L9 12h3zM2 11v3h3v-1H3v-2zm11 0v2h-2v1h3v-3z" style="color:#050505;opacity:.7"/>
</svg>
